X: 4647
T: Boxing, The
R: reel
M: 4/4
K: Adorian
|:AEAc B2AG|EABA ADEG|AEAc B2AG|EGGF GDEG|
AEAc B2AG|EABA ABcd|e2dB cBAG|1 EAAA A2EG:|2 EAAA A3e||
K:Amin
|:fedf edcB|Addc d3e|fedf edcB|ABBA B3e|
fedf edcB|Addd deba|aged dcAG|1 EAAA A2Ae:|2 EAAA ADEG||
|:A4 e2dc-|cA3 A2Bc-|cA3 e2dc-|cG3 G2Bc-|
cF3 e2dc-|cE3 e2b2|aged dcAG|EABA ADEG:|

